icons/folder-cline.svg

<svg xmlns="http://www.w3.org/2000/svg" viewBox="0 0 16 16"><path id="folder" fill="#42a5f5" d="m6.922 3.768-.644-.536A1 1 0 0 0 5.638 3H2a1 1 0 0 0-1 1v8a1 1 0 0 0 1 1h12a1 1 0 0 0 1-1V5a1 1 0 0 0-1-1H7.562a1 1 0 0 1-.64-.232"/><path id="motive" fill="#bbdefb" d="M11.5 6a1 1 0 0 0-1 1H10c-1.108 0-2 .892-2 2l-1 1.5L8 12c0 1.108.892 2 2 2h3c1.108 0 2-.892 2-2l1-1.5L15 9c0-1.108-.892-2-2-2h-.5a1 1 0 0 0-1-1m-1 3c.277 0 .5.223.5.5v2a.499.499 0 1 1-1 0v-2c0-.277.223-.5.5-.5m2 0c.277 0 .5.223.5.5v2a.499.499 0 1 1-1 0v-2c0-.277.223-.5.5-.5"/></svg>

<svg xmlns="http://www.w3.org/2000/svg" viewBox="0 0 16 16">
<path id="folder" fill="#42a5f5" d="m6.922 3.768-.644-.536A1 1 0 0 0 5.638 3H2a1 1 0 0 0-1 1v8a1 1 0 0 0 1 1h12a1 1 0 0 0 1-1V5a1 1 0 0 0-1-1H7.562a1 1 0 0 1-.64-.232" />
<path id="motive" fill="#bbdefb" d="m 11.5,6 a 1,1 0 0 0 -1,1 H 10 C 8.892,7 8,7.892 8,9 L 7,10.5 8,12 c 0,1.108 0.892,2 2,2 h 3 c 1.108,0 2,-0.892 2,-2 L 16,10.5 15,9 C 15,7.892 14.108,7 13,7 h -0.5 a 1,1 0 0 0 -1,-1 m -1,3 C 10.777,9 11,9.223 11,9.5 v 2 C 11,11.777 10.777,12 10.5,12 10.223,12 10,11.777 10,11.5 v -2 C 10,9.223 10.223,9 10.5,9 m 2,0 C 12.777,9 13,9.223 13,9.5 v 2 C 13,11.777 12.777,12 12.5,12 12.223,12 12,11.777 12,11.5 v -2 C 12,9.223 12.223,9 12.5,9" />
</svg>
